X: 130
T: Aime Gagnon's #1
O: French Canadian
R: reel
M: 4/4
L: 1/8
K: G
DG|"G"B2BA GB ed |B2BA GB dB | "C"edcB cBAG | "Am"FGAB"D"A2DG |
|"G"B2BA GB ed |B2BA GB dB | "C"edcB cBAG | "D"FDEF"G"G4 :|
|: "B7"e2f2"Em"g2e2 | e3f"C"gfed | edcB "Am"cBAG | "D"FGABA4 |
|  "B7"e2f2"Em"g2e2 | e3f"C"gfed | edcB "Am"cBAG | "D"FDEF"G"G4:|
